X: 023
M: 3/4
L: 1/8
K: C
|:\
c2 CDEF | G2 G,4 | g4 eg | {g}f2 dB {B}c2 |\
!p!D3 FEG | {A}G2 (F2 E2) | D3 FEG | ({A}G2 F2) !f!E2 |\
!+!G2 f2 e2 | {f}!+!e2 d4 :|
|:\
g2 GABc | d2 D4 | A3 cBd | ({e}d2 c2) B2 |\
g4 a^c | (.d.d.d.d.e) | {e}f2 (3(agf) (3(edc) | {c}!+!B3 A G2 |\

